X: 5806
T: Caledonia's Wail For Niel Gow
R: strathspey
M: 4/4
K: Bminor
F/E/|D<B, B,>C D>E F>B|A<F F>E D<A, A,F/E/|D<B,B,>C D>E Ff/g/|fe/d/ e/>d/c/<d/ F<B BF/E/|
D<B, B,>C D>E F>B|A/<F/E/>F/ F>E (3DEF A,F/E/|D<B, B,>C D>E Ff/g/|fd e/>d/c/<d/ F<B B||
f/a/|b>c d<c b>a f<d|a<f d/e/f/>e/ dA Af/a/|b>c d<c b>a f/a/b/c'/|df e/d/c/d/ B/d/f/d/ Bd/e/|
fd de/>d/ ca ad/c/|B>c d/c/d/e/ fB BD/E/|FF FC/D/ EE ED/C/|B,/C/D/E/ FA, B,2 B,||

